fonts/times-new-roman/bubble/glyphs/17b_pei_sofit.svg

<?xml version="1.0" encoding="utf-8"?>
<svg version="1.1" viewBox="-10 0 940 2048" xmlns="http://www.w3.org/2000/svg">
  <path fill="none" stroke="black" stroke-width="40" d="M 741 1992 L 718 1984 L 718 1147 C 718 1015 705.5 924.5 680.5 875.5 C 655.5 826.5 595.333 802 500 802 L 233 802 C 193 866 173 921 173 967 C 173 996.333 179.833 1016.833 193.5 1028.5 C 207.167 1040.167 236.333 1050.333 281 1059 C 339 1069.667 368 1097.333 368 1142 L 368 1192 C 368 1217.333 356.667 1230 334 1230 C 324 1230 309.333 1228.333 290 1225 C 270 1222.333 255.333 1221 246 1221 C 198 1221 160 1238.667 132 1274 L 99 1274 C 77.667 1231.333 65.195 1188.295 67 1145 C 71.979 1025.566 109.486 902.845 164.504 791.415 C 125.013 780.087 96 748 96 676 C 96 613.333 117 558.667 159 512 L 185 512 C 196.333 558.667 229 582 283 582 L 434 582 C 538 582 614.333 590 663 606 C 711.667 622 745.333 649.667 764 689 C 782.667 728.333 794.667 804.333 800 917 L 820 1367 C 828 1554.333 832 1713 832 1843 C 832 1877 828.5 1906 821.5 1930 C 814.5 1954 787.667 1974.667 741 1992 Z"/>
</svg>

<?xml version="1.0" standalone="no"?>
<!DOCTYPE svg PUBLIC "-//W3C//DTD SVG 1.1//EN" "http://www.w3.org/Graphics/SVG/1.1/DTD/svg11.dtd" >
<svg xmlns="http://www.w3.org/2000/svg" xmlns:xlink="http://www.w3.org/1999/xlink" version="1.1" viewBox="-10 0 940 2048">
   <path fill="none" stroke="black" stroke-width="40"
d="M741 1992l-23 -8v-837q0 -198 -37.5 -271.5t-180.5 -73.5h-267q-60 96 -60 165q0 44 20.5 61.5t87.5 30.5q87 16 87 83v50q0 38 -34 38q-15 0 -44 -5q-30 -4 -44 -4q-72 0 -114 53h-33q-32 -64 -32 -129q0 -180 119 -343q-90 -18 -90 -126q0 -94 63 -164h26q17 70 98 70
h151q156 0 229 24t101 83t36 228l20 450q12 281 12 476q0 51 -10.5 87t-80.5 62z" />
</svg>
